X:1
T:Title
%%score { ( 1 3 5 ) | ( 2 4 ) }
L:1/8
Q:1/4=100
M:4/4
K:C
V:1 treble nm="Grand Piano"
V:3 treble 
V:5 treble 
V:2 bass 
V:4 bass 
V:1
 [EG]3 [EA] [EG][Ec]de | c4 z4 | B6 z2 | [EG]6 z2 | [EG]3 [FA] [EG][Ec]de | c4 z4 | [DB]6 z2 | %7
w: Geo.~C.~Stebbins * * * * *|||||||
 c6 z2 | d3 c BF[B,FA][B,FG] | E4- [Ec]2 z2 | c3 c Bc [^Fd]>[Fe] | [Gd]6 z2 | %12
w: |||||
 [Ge]3 [Fd] [Ec][CEG][CE][CFA] | E4- [Ec]2 z2 | [DB]6 z2 | c6 z2 |] %16
w: ||||
V:2
 [C,C]3 [C,C] [C,C][C,G,][K:treble][G,F][G,G] | G,4 C2 z2 | G,G,G,G, z[K:treble] CB,F | %3
 C,C,C,C, C,2 z2 | [C,C]3 [C,C] [C,C][C,G,][K:treble][G,F][G,G] | G,4 z4 | %6
 [G,,G,]G,,B,,D, z[K:treble] E[G,F][G,F] | G,G,A,A, G,2 z2 | %8
 [G,B,F]3 [G,CE] [G,DF][K:bass][G,B,D]G,,G,, | z4 G,2 z2 | [A,E]3 [A,E] [^G,B,E][A,E] [D,C]>[D,C] | %11
 [G,B,]6 z2 | [C,C]3 [C,G,] [C,G,]C,C,C, | z4 G,2 z2 | [G,,G,]G,,B,,D, z[K:treble] E[G,F][G,F] | %15
 G,G,A,A, G,2 z2 |] %16
V:3
 x8 | E4- [EG]2 z2 | D2- [B,D]D- DADA | CCCC C2 z2 | x8 | E4- [CEG]2 z2 | z G,G,G, z cdG | %7
 EEFF E2 z2 | x8 | [CG]4 z4 | x8 | x8 | x8 | [CG]4 z4 | z G,G,G, z cdG | EEFF E2 z2 |] %16
V:4
 x6[K:treble] x2 | C,6 z2 | z4 G,2[K:treble] z2 | x8 | x6[K:treble] x2 | C,6 z2 | %6
 z4 G,,2[K:treble] z2 | C,6 z2 | x5[K:bass] x3 | C,6 z2 | x8 | x8 | x8 | C,6 z2 | %14
 z4 G,,2[K:treble] z2 | C,6 z2 |] %16
V:5
 x8 | x8 | x8 | x8 | x8 | x8 | z4 G,2 z2 | x8 | x8 | x8 | x8 | x8 | x8 | x8 | z4 G,2 z2 | x8 |] %16

